img/youtube-4.svg

<svg fill="none" height="32" viewBox="0 0 33 32" width="33" xmlns="http://www.w3.org/2000/svg" xmlns:xlink="http://www.w3.org/1999/xlink"><clipPath id="a"><path d="m.05957 0h32.0594v32h-32.0594z"/></clipPath><g clip-path="url(#a)"><path d="m31.4076 8.31542c-.3735-1.37847-1.4508-2.4579-2.8319-2.82658-1.855-.71484-19.82278-1.06509-25.03498.02048-1.38103.37278-2.46246 1.44811-2.831833 2.82658-.837237 3.6664-.90085 11.5931.02052 15.3414.373473 1.3785 1.450803 2.4579 2.831833 2.8266 3.67316.8439 21.13606.9627 25.03496 0 1.3811-.3728 2.4625-1.4481 2.8319-2.8266.8926-3.9941.9562-11.4292-.0205-15.36188z" fill="#f00"/><path d="m21.3528 15.996-8.3723-4.7929v9.5858z" fill="#fff"/></g></svg>

<svg width="33" height="32" viewBox="0 0 33 32" fill="none" xmlns="http://www.w3.org/2000/svg">
<g clip-path="url(#clip0_3280_4141)">
<path d="M31.4066 8.31542C31.0331 6.93695 29.9558 5.85752 28.5747 5.48884C26.7197 4.774 8.75195 4.42375 3.53974 5.50932C2.15871 5.8821 1.07728 6.95743 0.70791 8.3359C-0.129326 12.0023 -0.19294 19.929 0.72843 23.6773C1.1019 25.0558 2.17923 26.1352 3.56026 26.5039C7.23343 27.3478 24.6964 27.4666 28.5953 26.5039C29.9763 26.1311 31.0577 25.0558 31.4271 23.6773C32.3197 19.6832 32.3834 12.2481 31.4066 8.31542Z" fill="#FF0000"/>
<path d="M21.3509 15.996L12.9785 11.2031V20.7889L21.3509 15.996Z" fill="white"/>
</g>
<defs>
<clipPath id="clip0_3280_4141">
<rect width="32.0594" height="32" fill="white" transform="translate(0.0585938)"/>
</clipPath>
</defs>
</svg>
